src/static/src/img/icons/automation.svg

<svg height="41" viewBox="0 0 41 41" width="41" xmlns="http://www.w3.org/2000/svg"><g fill="none" fill-rule="evenodd"><path d="m-611-4390h1440v6628h-1440z" fill="#fff"/><g fill-rule="nonzero" transform=""><circle cx="20.5" cy="20.5" fill="#9aa0a6" r="20.5"/><path d="m16 27h2v-12h-2zm4 4h2v-20h-2zm-8-8h2v-4h-2zm12 4h2v-12h-2zm4-8v4h2v-4z" fill="#fff"/></g></g></svg>

<?xml version="1.0" encoding="UTF-8"?>
<svg width="41px" height="41px" viewBox="0 0 41 41" version="1.1" xmlns="http://www.w3.org/2000/svg" xmlns:xlink="http://www.w3.org/1999/xlink">
    <!-- Generator: Sketch 51 (57462) - http://www.bohemiancoding.com/sketch -->
    <title>Group 12</title>
    <desc>Created with Sketch.</desc>
    <defs></defs>
    <g id="Homepage" stroke="none" stroke-width="1" fill="none" fill-rule="evenodd">
        <g id="v7c" transform="translate(-611.000000, -4390.000000)">
            <rect fill="#FFFFFF" x="0" y="0" width="1440" height="6628"></rect>
            <g id="Group-9-Copy" transform="translate(112.000000, 3980.000000)" fill-rule="nonzero">
                <g id="Group-7-Copy" transform="translate(0.000000, 244.000000)">
                    <g id="Group-4">
                        <g id="Group-12" transform="translate(499.000000, 166.000000)">
                            <circle id="Oval-3-Copy-8" fill="#9AA0A6" cx="20.5" cy="20.5" r="20.5"></circle>
                            <path d="M16,27 L18,27 L18,15 L16,15 L16,27 Z M20,31 L22,31 L22,11 L20,11 L20,31 Z M12,23 L14,23 L14,19 L12,19 L12,23 Z M24,27 L26,27 L26,15 L24,15 L24,27 Z M28,19 L28,23 L30,23 L30,19 L28,19 Z" id="Shape-Copy-2" fill="#FFFFFF"></path>
                        </g>
                    </g>
                </g>
            </g>
        </g>
    </g>
</svg>
